!!!!SEGMENT: pl-gd--ms-4012--003-002_marenzio-luca--missa-super-iniquos-odio-habui-gloria-et-in-terra-pax.krn
!!!cenid: 16xx:1750
!!!COM: Marenzio, Luca
!!!COM-rismID: pe30003955
!!!CDT: ~1553-1599/08/22
!!!CNT: Italian
!!!OPR: Missa super Iniquos odio habui
!!!OTL: Gloria/Et in terra pax
!!!OMV: 002
!!!PDT:
!!!AGN:
!!!SMS-siglum: PL-GD
!!!SMS-shelfmark: Ms 4012
!!!SMS-variant:
!!!SMS-altvar:
!!!SMS-shelfwork: 003-002 M
!!!NIFC-rismSourceID: 305000382
!!!NIFC-islandoraID: pl-gd:8969
!!!URL-pdf-islandora: https://repozytorium.nifc.pl/islandora/object/pl-gd%3A8969/datastream/PDF/view#page=172
!!!URL-scan: https://polish.musicsources.pl/pl/lokalizacje/galeria/rekopisy/5111 @EN{Scan on Polish Music Sources Website} @PL{Skany w portalu Dziedzictwo Muzyki Polskiej w otwartym dostępie}
!!!ONB-nifc: UWAGA: partia [bassus pro organo], 157v-158r, skan 0172. Części: 1. Kyrie eleison, 2. Gloria/Et in terra pax
!!!AIN: 1 organ
!!!key: F
**kern	**kern
*part1	*part1
*staff2	*staff1
*I"Organo	*
*I'Org.	*
*Iorgan	*Iorgan
*ICklav	*ICklav
*clefF4	*clefC4
*k[b-]	*k[b-]
*F:	*F:
*M4/4	*M4/4
*met(C)	*met(C)
=1-	=1-
!	!LO:TX:b:t=Et in terra pax &colon; &&colon;:color=red
0r	0f
=2-	=2-
.	.
=3-	=3-
0r	1d
*	*clefF4
=4-	=4-
.	0F
=5-	=5-
!LO:TX:t=P:problem:kreska pseudotaktowa	!
0r	.
=6-	=6-
!	!LO:TX:t=P:problem:kreska pseudotaktowa
.	1D
=7-	=7-
0r	2C/
.	2C/
=8-	=8-
.	4E\
.	4A\
.	4.G\
.	8G\
=9-	=9-
2r	1C
1C/	.
=10-	=10-
.	0r
2AA/	.
=11-	=11-
4BB-/	.
4GG/	.
2D/	.
=12-	=12-
2GG/	4r
.	4G\
!LO:TX:t=P:problem:kreska pseudotaktowa	!LO:TX:a:t=P:problem:# above
2r	4F#X\
!	!LO:TX:t=P:problem:kreska pseudotaktowa
.	4G\
!LO:SIC:v:t=custos BB-	!LO:SIC:v:t=custos C
!!LO:LB:g=original
=13-	=13-
4r	2C/
4BB-/	.
4GG/	2r
4.C/	.
=14-	=14-
.	2r
!LO:N:acc=#	!
!LO:TX:a:t=P:problem:# below	!
8BBn/	.
4C/	.
2FF/	4r
.	2Fny\
=15-	=15-
!LO:TX:t=P:problem:kreska pseudotaktowa	!
0r	.
.	4G\
.	1D\
=16-	=16-
.	.
!	!LO:TX:a:t=P:problem:b above
!	!LO:TX:t=P:problem:kreska pseudotaktowa
.	2E-X\
=17-	=17-
4r	2D/
4D/	.
4.G\	2r
8A\	.
=18-	=18-
4B-\	1r
!LO:TX:a:t=P:problem:b above	!
4E-X\	.
4.F\	.
8F\	.
=19-	=19-
1BB-y	1r
=20-	=20-
1.FF	1.F
=21-	=21-
.	.
!LO:TX:t=P:problem:kreska pseudotaktowa	!LO:TX:t=P:problem:kreska pseudotaktowa
2FF/	2F\
=22-	=22-
1FF	1F
=23-	=23-
1.C	1.C
=24-	=24-
.	.
2C/	2C/
=25-	=25-
1C	1C
=26-	=26-
!LO:TX:t=P:problem:kreska pseudotaktowa	!LO:TX:t=P:problem:kreska pseudotaktowa
0GG	0G
=27-	=27-
.	.
=28-	=28-
0D	0D
=29-	=29-
.	.
=30-	=30-
!LO:TX:t=P:problem:kreska pseudotaktowa	!
0r	4G\
.	4G\
.	2G\
=31-	=31-
.	4F\
.	4.B-\
.	8B-\
!	!LO:TX:t=P:problem:kreska pseudotaktowa
.	4F\
=32-	=32-
2r	2G\
4C/	1C/
4C/	.
=33-	=33-
2C/	.
4AA/	2r
4.BB-/	.
=34-	=34-
.	1r
8BB-/	.
4GG/	.
2D/	.
=35-	=35-
1GG	4G\
.	4G\
.	2G\
=36-	=36-
!	!LO:TX:t=P:problem:kreska pseudotaktowa
4C/	1C
4C/	.
!LO:TX:t=P:problem:kreska pseudotaktowa	!
2C/	.
=37-	=37-
1FF	4F\
.	4F\
.	2F\
=38-	=38-
0r	4D/
.	4.E-X\
.	8E-\
.	4BB-/
=39-	=39-
.	1F
=40-	=40-
2r	0BB-
1BB-/	.
=41-	=41-
.	.
2BB-/	.
=42-	=42-
!LO:TX:t=P:problem:kreska pseudotaktowa	!LO:TX:t=P:problem:kreska pseudotaktowa
1BB-	1r
!LO:SIC:v:t=custos E-	!LO:SIC:v:t=custos F
!!LO:LB:g=original
=43-	=43-
1E-X	0r
=44-	=44-
1D	.
=45-	=45-
4G\	1r
4F\	.
2B-\	.
=46-	=46-
!LO:TX:t=P:problem:kreska pseudotaktowa	!
1F	2r
!	!LO:TX:t=P:problem:kreska pseudotaktowa
.	(2F\
=47-	=47-
0r	2F\)
.	2G\
=48-	=48-
.	2D/
.	4D/
.	4G\
=49-	=49-
1r	2F\
.	2D/
=50-	=50-
4r	1C
4.C/	.
8D/	.
4Eny\	.
=51-	=51-
2F\	4r
.	4.F\
!LO:TX:t=P:problem:kreska pseudotaktowa	!
2FF/	.
.	8G\
!	!LO:TX:t=P:problem:kreska pseudotaktowa
.	4A\
=52-	=52-
4r	2B-\
4.BB-/	.
.	2BB-/
8C/	.
4D/	.
=53-	=53-
!LO:TX:a:t=P:problem:b above	!
2E-X\	4r
.	2E-X\
2E-\	.
.	4E-\
=54-	=54-
4r	4.BB-/
2BB-/	.
.	8BB-/
.	2BB-/
4BB-/	.
=55-	=55-
4.FF/	4r
.	2F\
8FF/	.
!LO:TX:t=P:problem:kreska pseudotaktowa	!
2FF/	.
!	!LO:TX:t=P:problem:kreska pseudotaktowa
.	4F\
=56-	=56-
4r	4.C/
2C/	.
.	8C/
.	2C/
4C/	.
=57-	=57-
4.GG/	4r
.	2G\
8GG/	.
2GG/	.
.	4G\
=58-	=58-
4r	4.D/
2D/	.
.	8D/
.	2D/
4D/	.
=59-	=59-
4.AA/	4r
.	2A\
8AA/	.
!LO:TX:t=P:problem:kreska pseudotaktowa	!
2AA/	.
!	!LO:TX:t=P:problem:kreska pseudotaktowa
.	4A\
=60-	=60-
1D	4.D/
.	8D/
.	2D/
=61-	=61-
1GG	1G
=62-	=62-
1C	1C
=63-	=63-
!LO:TX:t=P:problem:kreska pseudotaktowa	!LO:TX:t=P:problem:kreska pseudotaktowa
1FF	1F
=64-	=64-
1r	1C
=65-	=65-
0FF	0F
=66-	=66-
.	.
=67-	=67-
0C	0C
=68-	=68-
.	.
=69-	=69-
0GG	0G
=70-	=70-
.	.
=71-	=71-
!LO:TX:t=P:problem:kreska pseudotaktowa	!LO:TX:t=P:problem:kreska pseudotaktowa
0C	0C
=72-	=72-
.	.
!LO:SIC:v:t=custos F	!LO:SIC:v:t=custos F
!!LO:LB:g=original
=73-	=73-
0r	2F\
.	4F\
.	4G\
=74-	=74-
.	2D/
.	2E-X\
=75-	=75-
!LO:TX:t=P:problem:kreska pseudotaktowa	!
0r	1.D
=76-	=76-
.	.
!	!LO:TX:t=P:problem:kreska pseudotaktowa
.	2G\
=77-	=77-
1r	1F
=78-	=78-
4r	2F\
2F\	.
.	2r
4D/	.
=79-	=79-
2C/	4r
.	2C/
2r	.
.	4AA/
=80-	=80-
4r	1GG
4.G\	.
8F\L	.
8G\	.
8A\J	.
=81-	=81-
2B-\	4r
.	4.BB-/
!LO:TX:t=P:problem:kreska pseudotaktowa	!
2BB-/	.
.	8C/L
.	8D/
!	!LO:TX:t=P:problem:kreska pseudotaktowa
.	8Eny/J
=82-	=82-
4r	2F\
4.FF/	.
.	2F\
8GG/L	.
8AA/	.
8BB-/J	.
=83-	=83-
2C/	4r
.	2C/
2C/	.
.	4AA/
=84-	=84-
4r	1GG
2G\	.
4GG/	.
=85-	=85-
!LO:TX:t=P:problem:kreska pseudotaktowa	!
1D	4r
.	4.D/
.	8C/L
.	8BB-/
!	!LO:TX:t=P:problem:kreska pseudotaktowa
.	8AA/J
=86-	=86-
4r	2GG/
4.G\	.
.	2GG/
8F\L	.
8Eny\	.
8D\J	.
=87-	=87-
2C/	4r
.	4.C/
2C/	.
.	8BB-/L
.	8AA/
.	8GG/J
=88-	=88-
4r	2FF/
4.F\	.
.	2FF/
8E\L	.
8D\	.
8C\J	.
=89-	=89-
2BB-/	4r
.	4.BB-/
!LO:TX:t=P:problem:kreska pseudotaktowa	!
2BB-/	.
.	8C/L
.	8D/
!	!LO:TX:t=P:problem:kreska pseudotaktowa
.	8E/J
=90-	=90-
4r	1F
4.FF/	.
8GG/L	.
8AA/	.
8BB-/J	.
=91-	=91-
0C	0C
=92-	=92-
.	.
=93-	=93-
!LO:TX:t=P:problem:kreska pseudotaktowa	!LO:TX:t=P:problem:kreska pseudotaktowa
!LO:N:vis=00	!LO:N:vis=00
1FF;;	1F;;
=94-	=94-
!	!LO:TX:b:t=Qui tollis & c&colon;:color=red
0r	0F
=95-	=95-
.	.
=96-	=96-
0r	0D
=97-	=97-
.	.
=98-	=98-
!LO:TX:t=P:problem:kreska pseudotaktowa	!LO:TX:t=P:problem:kreska pseudotaktowa
0r	0C
=99-	=99-
.	.
!LO:SIC:v:t=custos C	!LO:SIC:v:t=custos F
!!LO:LB:g=original
=100-	=100-
0r	4F\
.	2B-\
.	4F\
=101-	=101-
.	1G
=102-	=102-
2r	1C
1C/	.
=103-	=103-
!	!LO:TX:t=P:problem:kreska pseudotaktowa
.	1r
!LO:TX:t=P:problem:kreska pseudotaktowa	!
2AA/	.
=104-	=104-
2AA/	0r
2D/	.
=105-	=105-
1GG	.
=106-	=106-
0D	2r
.	2D/
=107-	=107-
.	1G
=108-	=108-
2r	4C/
.	4C/
!LO:TX:t=P:problem:kreska pseudotaktowa	!
2r	4.F\
!	!LO:TX:t=P:problem:kreska pseudotaktowa
.	8E\
=109-	=109-
0r	4D/
.	4BB-/
.	2F\
=110-	=110-
.	1BB-;
=111-	=111-
*M3/2	*M3/2
*col	*col
!LO:N:vis=xstem	!LO:N:vis=xstem
2.FF/	2.F\
4FF/	4F\
!LO:N:vis=xstem	!LO:N:vis=xstem
2FF/	2F\
*Xcol	*Xcol
=112-	=112-
*col	*col
!LO:N:vis=xstem	!LO:N:vis=xstem
2.C/	2.C/
4C/	4C/
!LO:N:vis=xstem	!LO:N:vis=xstem
!LO:TX:t=P:problem:kreska pseudotaktowa	!LO:TX:t=P:problem:kreska pseudotaktowa
2C/	2C/
*Xcol	*Xcol
=113-	=113-
*col	*col
!LO:N:vis=xstem	!LO:N:vis=xstem
2.GG/	2.G\
4GG/	4G\
!LO:N:vis=xstem	!LO:N:vis=xstem
2GG/	2G\
*Xcol	*Xcol
=114-	=114-
*col	*col
!LO:N:vis=xstem	!LO:N:vis=xstem
2C/	2G\
1FF	1C
*Xcol	*Xcol
=115-	=115-
*col	*col
!LO:N:vis=xstem	!LO:N:vis=xstem
2.C/	2.C/
4C/	4C/
!LO:N:vis=xstem	!LO:N:vis=xstem
2FF/	2F\
*Xcol	*Xcol
=116-	=116-
*col	*col
!LO:N:vis=xstem	!LO:N:vis=xstem
2BB-\	2D\
!LO:TX:t=P:problem:kreska pseudotaktowa	!LO:TX:t=P:problem:kreska pseudotaktowa
1GG	1G
*Xcol	*Xcol
=117-	=117-
*M4/4	*M4/4
1D	1D,
=118-	=118-
1GG	1G
=119-	=119-
1C	1C
=120-	=120-
1FF	1F
=121-	=121-
!LO:TX:t=P:problem:kreska pseudotaktowa	!
1r	4BB-/
.	4.B-\
.	8F\
!	!LO:TX:t=P:problem:kreska pseudotaktowa
.	4G\
=122-	=122-
2r	2D/
4GG/	2G\
4.G\	.
=123-	=123-
.	1r
8A\	.
4B-\	.
2F\	.
=124-	=124-
2BB-/	4BB-/
.	4.B-\
2r	.
.	8A\
.	4G\
=125-	=125-
1r	1A
=126-	=126-
2r	1D
1D\	.
=127-	=127-
!	!LO:TX:t=P:problem:kreska pseudotaktowa
.	0r
2G\	.
=128-	=128-
2E\	.
!LO:TX:t=P:problem:kreska pseudotaktowa	!
2F\	.
!LO:SIC:v:t=custos BB-	!LO:SIC:v:t=custos G
!!LO:LB:g=original
=129-	=129-
2.BB-/	0r
4C/	.
=130-	=130-
1D	.
=131-	=131-
0GG	2r
.	1G\
=132-	=132-
.	.
.	2G\
=133-	=133-
!	!LO:TX:t=P:problem:kreska pseudotaktowa
4r	1C
4C/	.
4E\	.
!LO:TX:t=P:problem:kreska pseudotaktowa	!
4C/	.
=134-	=134-
2F\	4r
.	4FF/
2F\	4AA/
.	4FF/
=135-	=135-
4r	2C/
4C/	.
4E\	2C/
4C/	.
=136-	=136-
4.F\	4r
.	4FF/
8F\	.
2F\	4GG/
.	4FF/
=137-	=137-
2r	4.C/
.	8C/
!	!LO:TX:t=P:problem:kreska pseudotaktowa
4r	2C/
!LO:TX:t=P:problem:kreska pseudotaktowa	!
4C/	.
=138-	=138-
2G\	4r
.	4GG/
4D/	2D/
4D/	.
=139-	=139-
2G\	4GG/
.	4GG/
4C/	2C/
4C/	.
=140-	=140-
4.F\	4FF/
.	4FF/
8F\	.
2BB-/	4.BB-/
.	8BB-/
=141-	=141-
1r	1F
=142-	=142-
!LO:TX:t=P:problem:kreska pseudotaktowa	!LO:TX:t=P:problem:kreska pseudotaktowa
(>1C	(>1C
=143-	=143-
1C)	1C)
=144-	=144-
1GG	1G
=145-	=145-
0D	0D
=146-	=146-
.	.
=147-	=147-
!LO:TX:t=P:problem:kreska pseudotaktowa	!LO:TX:t=P:problem:kreska pseudotaktowa
0GG	0G
=148-	=148-
.	.
=149-	=149-
0C	0C
=150-	=150-
.	.
=151-	=151-
0FF	0F
=152-	=152-
.	.
=153-	=153-
0BB-	0BB-
=154-	=154-
.	.
=155-	=155-
!LO:TX:t=P:problem:kreska pseudotaktowa	!LO:TX:t=P:problem:kreska pseudotaktowa
0FF	0F
=156-	=156-
.	.
=157-	=157-
4F\	1r
2F\	.
4E\	.
=158-	=158-
4.D/	2r
8D/	.
2C/	4C/
.	2C/
=159-	=159-
1r	.
.	4BB-/
.	4.AA/
.	8AA/
=160-	=160-
4A\	2GG/
2G\	.
.	2r
4F\	.
=161-	=161-
4.E-X\	2r
8E-\	.
2D/	4r
.	4C/
=162-	=162-
2r	4.G\
.	8G\
!	!LO:TX:t=P:problem:kreska pseudotaktowa
4r	2F\
!LO:TX:t=P:problem:kreska pseudotaktowa	!
4F\	.
!LO:SIC:v:t=custos BB-	!LO:SIC:v:t=custos B-
!!LO:LB:g=original
=163-	=163-
4.BB-/	2r
8BB-/	.
2BB-/	4r
.	4B-\
=164-	=164-
2r	4.F\
.	8F\
4r	2F\
4F\	.
=165-	=165-
4.BB-/	2r
8BB-/	.
2BB-/	4r
.	2B-\
=166-	=166-
!LO:TX:t=P:problem:kreska pseudotaktowa	!
1r	.
.	4G\
.	4A\
!	!LO:TX:t=P:problem:kreska pseudotaktowa
.	4F\
=167-	=167-
4r	2G\
4GG/	.
4.C/	2C/
8C/	.
=168-	=168-
2C/	4r
.	4C/
2r	4.F\
.	8F\
=169-	=169-
4r	2F\
4FF/	.
4.BB-/	2r
8BB-/	.
=170-	=170-
2BB-/	4r
.	2B-\
!LO:TX:t=P:problem:kreska pseudotaktowa	!
2r	.
!	!LO:TX:t=P:problem:kreska pseudotaktowa
.	4F\
=171-	=171-
2r	4G\
.	4D/
4r	2A\
4AA/	.
=172-	=172-
4.D/	2D/
8D/	.
2D/	4r
.	4D/
=173-	=173-
2r	4.G\
.	8G\
4r	2G\
4GG/	.
=174-	=174-
4.C/	4r
.	2C/
8C/	.
!LO:TX:t=P:problem:kreska pseudotaktowa	!
2C/	.
!	!LO:TX:t=P:problem:kreska pseudotaktowa
.	4C/
=175-	=175-
2r	4F\
.	4FF/
4r	1C/
2BB-/	.
=176-	=176-
.	.
4C/	.
4F\	2FF/
4FF/	.
=177-	=177-
1C	4r
.	2C/
.	4C/
=178-	=178-
1FF	2F\
.	2FF/
=179-	=179-
!LO:TX:t=P:problem:kreska pseudotaktowa	!LO:TX:t=P:problem:kreska pseudotaktowa
1r	1C
=180-	=180-
4r	4FF/
4FF/	4F\
4.C/	4.C/
8C/	8C/
=181-	=181-
4C/	4C/
4FF/	4F\
4.BB-/	4.BB-/
8BB-/	8BB-/
=182-	=182-
4FF/	4F\
2C/	2C/
4C/	4C/
=183-	=183-
4F\	4FF/
4FF/	4F\
!LO:TX:t=P:problem:kreska pseudotaktowa	!LO:TX:t=P:problem:kreska pseudotaktowa
2C/	2C/
=184-	=184-
4FF/	4F\
2C/	2C/
4C/	4C/
=185-	=185-
2F\	2FF/
2FF/	2F\
=186-	=186-
1C	1C
=187-	=187-
!LO:N:vis=00	!LO:N:vis=00
1FF;;	1F;;
=	=
*-	*-
!!!RDF**kern: > = above
!!!RDF**kern: < = below
!!!system-decoration: {(s1,s2)}
!!!ENC: Marta Opryszak
!!!END: 2022-06-24
!!!ENC: Urszula Świątek
!!!END: 2022-07-27
